X:8208
T:Johnny Mickie's Slide
R:slide
Z:id:hn-slide-50
M:6/8
K:D
E|FGF F2E|D3 D2E|FGF FED|E3 E2F|GFG B2A|FEF A2F|EDE F2E|D3 D2:|
|:F|ABd A2F|A3 A2F|ABd A2F|G3 G2D|GFG B2A|FEF A2F|EDE F2E|D3 D2:|


